X:1
T:[ID 3-1]
T:[ID 3-1]
T:Bezeichnung standardisiert: Menuet [mit Trio] Menuet Con Trio
T:Urheber unbekannt Erstbeleg: 1767 (Datum in der schriftlichen Quelle) Datum in der hier transkribierten schriftlichen Quelle: 1776 - 1791
C:Urheber unbekannt
C:Erstbeleg: 1767 (Datum in der schriftlichen Quelle)
C:Datum in der hier transkribierten schriftlichen Quelle: 1776 - 1791
%%score 1 2
L:1/8
M:3/4
K:G
V:1 treble 
V:2 treble 
V:1
 g4 GA | B2 A2 G2 | a4 DE | F2 E2 D2 | (d'b)(bg) g2 | (d'b)(bg) g2 | ab c'2 b2 |{b} a6 :: a3 bab | %9
 a2 b2 c'2 | b3 c'bc' | b2 c'2 d'2 | (d'b)(bg) g2 | (d'b)(bg) g2 | (3edc B2 TA2 | G6 :| %16
[M:3/4]"^Trio" !fermata!d3 edc | Bc{c} d4 | (3edc B2 A2 | (3BAG G4 | (3Bcd d4 | (3ABc c4 | %22
 (3Bcd c2 B2 |{B} A6 :: A2 (3cBA A2 | A2 (3fga g2 | AB"^[sic]" c2"^[sic]" B2 |{B} A6 | d3 edc | %29
 Bc{c} d4 | (3edc B2 TA2 | G6 :| %32
V:2
 !fermata!g4 GA | B2 A2 G2 | a4 DE | F2 E2 D2 | d'b-bd d2 | d'b-bd d2 | fg a2 g2 |{g} f6 :: %8
 f3 gfg | f2 g2 a2 | g3 aga | g2 a2 b2 | bg-gd d2 | bg-gd d2 | (3cBA G2 F2 |{F} G6 :| %16
[M:3/4] B3 cBA | GA{A} B4 | (3cBA G2 G2 | G2 G4 | (3GAB B4 | (3FGA A4 | (3GAB A2 G2 |{G} F6 :: %24
 A2 (3fga g2 | A2 (3cBA B2 | AB"^[sic]" B2"^[sic]" A2 |{G} F6 | B3 cBA | GA{A} B4 | (3cBA G2 F2 | %31
{F} G6 :| %32

